X:1
T:Trollruna
T:W. Peterson-Berger (1867-1942)
T:Trollruna
T:Norsk folkvisa
T:©CPDL Edition may be freely distributed, duplicated, performed and recorded PA Aglert
T:©CPDL Edition may be freely distributed, duplicated, performed and recorded PA Aglert
T:©CPDL Edition may be freely distributed, duplicated, performed and recorded PA Aglert
T:©CPDL Edition may be freely distributed, duplicated, performed and recorded PA Aglert
T:©CPDL Edition may be freely distributed, duplicated, performed and recorded PA Aglert
C:W. Peterson-Berger (1867-1942)
Z:©CPDL Edition may be freely distributed, duplicated, performed and recorded
Z:PA Aglert
%%score [ 1 2 3 ( 4 5 ) ]
L:1/8
Q:1/4=160
M:3/4
K:Cmin
V:1 treble nm="S"
V:2 treble nm="A"
V:3 treble-8 nm="T"
V:4 bass nm="B"
V:5 bass 
V:1
"^Con moto."!mf! F2 |[Q:1/4=160]"^assai vivo" G4 F2 | G2 G2 =B2 |"^accel."!<(! c2 c2 d2!<)! | %4
w: Det|satt tre|sejd- ko- nor|un- der en|
 e4!p! e2 | %5
w: sten. De|
[Q:1/4=120]"^tranq."[Q:1/4=120]"^tranq."[Q:1/4=120]"^tranq."[Q:1/4=120]"^tranq." d3 c =B2 | %6
w: trå- da gull-|
 c4!mf! c2 | %7
w: sko. De|
[Q:1/4=180]"^a tempo"[Q:1/4=180]"^a tempo"[Q:1/4=180]"^a tempo"[Q:1/4=180]"^a tempo" !courtesy!_B3 G A2 | %8
w: skap- te den|
!<(! F2 G2 G2!<)! |!f!"^rit."!<(! =B4 c2!<)! | %10
w: häs- ten av|man- na-|
!ff! !fermata!c4!pp![Q:1/4=90]"^più lento mesterioso"[Q:1/4=90]"^più lento mesterioso"[Q:1/4=90]"^più lento mesterioso"[Q:1/4=90]"^più lento mesterioso" (G=A) | %11
w: ben. Så *|
 =B4 c2 | A3 G F2 |"^rit." G4 G2 | %14
w: vi- da|fa- ra de|lön- doms-|
 !fermata!G4!mf![Q:1/4=180]"^a tempo"[Q:1/4=180]"^a tempo"[Q:1/4=180]"^a tempo"[Q:1/4=180]"^a tempo" F2 | %15
w: ord. De|
 G4 F2 | G2 G2!<(! =B2 |"^accel." c2 c2 d2!<)! | %18
w: skap- te|häs- ten och|gav ho- nom|
!f! e4!p![Q:1/4=120]"^tranq."[Q:1/4=120]"^tranq."[Q:1/4=120]"^tranq."[Q:1/4=120]"^tranq." e2 | %19
w: namn. De|
 d3 c =B2 | c4!mf! c2 | (!courtesy!_B3 G) A2 |!<(! F2 G2 G2!<)! |!f!"^rit."!<(! =B4 c2!<)! | %24
w: trå- da gull-|sko. Och|Be- * jar-|klak- ken, så|het- te|
!ff! !fermata!c4!pp! (G=A) | =B4 c2 | !courtesy!_A3 G F2 |"^rit." G4 G2 | %28
w: han, Så *|vi- da|fa- ra de|lön- doms-|
 !fermata!G4!f![Q:1/4=220]"^vivo"[Q:1/4=220]"^vivo"[Q:1/4=220]"^vivo"[Q:1/4=220]"^vivo" F2 | %29
w: ord. Och|
 G4 F2 | G2!<(! G2 =B2 | c4!<)! d2 | e4!p! e2 | d3 c =B2 | %34
w: när de|ha- de den|häs- ten|gjort, de|trå- da gull-|
 c4!mf! c2[Q:1/4=180]"^a tempo"[Q:1/4=180]"^a tempo"[Q:1/4=180]"^a tempo"[Q:1/4=180]"^a tempo" | %35
w: sko, så|
 !courtesy!_B3 G A2 | F2 G2 G2 | =B4 c2 | %38
w: sän- de de|ho- nom till|kung- ens|
 !fermata!c4!pp! (G[Q:1/4=160]"^sostenuto"[Q:1/4=160]"^sostenuto"[Q:1/4=160]"^sostenuto"=A)[Q:1/4=160]"^sostenuto" | %39
w: port. Så *|
 =B4 c2 | !courtesy!_A3 G F2 | G4!>(! G2 | G6!>)! |] %43
w: vi- da|fa- ra de|lön- doms-|ord.|
V:2
 C2 | D4 C2 | D2 D2 G2 |"^accel."!<(! G2 G2 ^F2!<)! | G4!p! G2 | ^F3 F F2 | G4!mf! G2 | G3 G G2 | %8
w: Det|satt tre|sejd- ko- nor|un- der en|sten. De|trå- da gull-|sko. De|skap- te den|
!<(! F2 D2 G2!<)! |!f!"^rit."!<(! ^F4 G2!<)! |!ff! !fermata!!courtesy!_A4!pp! D2 | ^F4 G2 | %12
w: häs- ten av|man- na-|ben. Så|vi- da|
 E3 D C2 |"^rit." D4 D2 | !fermata!D4!mf! C2 | D4 C2 | D2 D2!<(! G2 |"^accel." G2 G2 ^F2!<)! | %18
w: fa- ra de|lön- doms-|ord. De|skap- te|häs- ten och|gav ho- nom|
!f! G4!p! G2 | ^F3 F F2 | G4!mf! G2 | G4 G2 |!<(! F2 D2 G2!<)! |!f!"^rit."!<(! ^F4 G2!<)! | %24
w: namn. De|trå- da gull-|sko. Och|Be- jar-|klak- ken, så|het- te|
!ff! !fermata!A4!pp! D2 | ^F4 G2 | E3 D C2 |"^rit." D4 D2 | !fermata!D4!f! C2 | D4 C2 | %30
w: han, Så|vi- da|fa- ra de|lön- doms-|ord. Och|när de|
 D2!<(! D2 G2 | G4 ^F2!<)! | G4!p! G2 | ^F3 F F2 | G4!mf! G2 | G3 G G2 | D2 D2 G2 | ^F4 G2 | %38
w: ha- de den|häs- ten|gjort, de|trå- da gull-|sko, så|sän- de de|ho- nom till|kung- ens|
 !fermata!A4!pp! D2 | ^F4 G2 | E3 D C2 | C4!>(! C2 | C6!>)! |] %43
w: port. Så|vi- da|fa- ra de|lön- doms-|ord.|
V:3
 c2 | =B4 c2 | =B2 B2 d2 |"^accel."!<(! c2 c2 c2!<)! | c4!p! c2 | c3 c c2 | c4!mf! c2 | c3 c c2 | %8
w: Det|satt tre|sejd- ko- nor|un- der en|sten. De|trå- da gull-|sko. De|skap- te den|
!<(! c2 B2 d2!<)! |!f!"^rit."!<(! ^d4 !courtesy!_e2!<)! |!ff! !fermata!f4!pp! (G=A) | =B4 c2 | %12
w: häs- ten av|man- na-|ben. Så *|vi- da|
 A3 G F2 |"^rit." G4 G2 | !fermata!G4!mf! c2 | =B4 c2 | =B2 B2!<(! d2 |"^accel." c2 c2 c2!<)! | %18
w: fa- ra de|lön- doms-|ord. De|skap- te|häs- ten och|gav ho- nom|
!f! c4!p! c2 | c3 c c2 | c4!mf! c2 | c4 c2 |!<(! c2 =B2 d2!<)! | %23
w: namn. De|trå- da gull-|sko. Och|Be- jar-|klak- ken, så|
!f!"^rit."!<(! ^d4 !courtesy!_e2!<)! |!ff! !fermata!f4!pp! (G=A) | =B4 c2 | !courtesy!_A3 G F2 | %27
w: het- te|han, Så *|vi- da|fa- ra de|
"^rit." G4 G2 | !fermata!G4!f! c2 | =B4 c2 | =B2!<(! B2 d2 | c4 c2!<)! | c4!p! c2 | c3 c c2 | %34
w: lön- doms-|ord. Och|när de|ha- de den|häs- ten|gjort, de|trå- da gull-|
 c4!mf! c2 | c3 c c2 | c2 =B2 d2 | ^d4 !courtesy!_e2 | !fermata!f4!pp! (G=A) | =B4 c2 | %40
w: sko, så|sän- de de|ho- nom till|kung- ens|port. Så *|vi- da|
 !courtesy!_A3 G F2 | G4!>(! G2 | G6!>)! |] %43
w: fa- ra de|lön- doms-|ord.|
V:4
 A,2 | G,4 A,2 | G,2 G,2 F,2 |"^accel."!<(! E,2 E,2 D,2!<)! | C,4!p! C,2 | D,3 D, D,2 | %6
w: Det|satt tre|sejd- ko- nor|un- der en|sten. De|trå- da gull-|
 E,4!mf! E,2 | F,3 F, F,2 |!<(! A,2 G,2 =B,2!<)! |!f!"^rit."!<(! =B,4 =A,2!<)! | %10
w: sko. De|skap- te den|häs- ten av|man- na-|
!ff! !fermata!!courtesy!=D4!pp! D,2 | ^F,4 G,2 | E,3 D, C,2 |"^rit." D,4 D,2 | %14
w: ben. Så|vi- da|fa- ra de|lön- doms-|
 !fermata!D,4!mf! A,2 | G,4 A,2 | G,2 G,2!<(! F,2 |"^accel." E,2 E,2 D,2!<)! |!f! C,4!p! C,2 | %19
w: ord. De|skap- te|häs- ten och|gav ho- nom|namn. De|
 D,3 D, D,2 | E,4!mf! E,2 | F,4 F,2 |!<(! A,2 G,2 =B,2!<)! |!f!"^rit."!<(! =B,4 =A,2!<)! | %24
w: trå- da gull-|sko. Och|Be- jar-|klak- ken, så|het- te|
!ff! !fermata!!courtesy!=D4!pp! D,2 | ^F,4 G,2 | E,3 D, C,2 |"^rit." D,4 D,2 | %28
w: han, Så|vi- da|fa- ra de|lön- doms-|
 !fermata!D,4!f! A,2 | G,4 A,2 | G,2!<(! G,2 F,2 | E,4 D,2!<)! | C,4!p! C,2 | D,3 D, D,2 | %34
w: ord. Och|när de|ha- de den|häs- ten|gjort, de|trå- da gull-|
 E,4!mf! E,2 | F,3 F, F,2 | A,2 G,2 =B,2 | =B,4 =A,2 | !fermata!D4!pp! D,2 | ^F,4 G,2 | %40
w: sko, så|sän- de de|ho- nom till|kung- ens|port. Så|vi- da|
 E,3 D, C,2 | C,4!>(! C,2 | C,6!>)! |] %43
w: fa- ra de|lön- doms-|ord.|
V:5
 x2 | x6 | x6 | x6 | x6 | x6 | x6 | x6 | x6 | x6 | D4 (G,,=A,,) | =B,,4 C,2 | %12
 !courtesy!_A,,3 G,, F,,2 | G,,4 G,,2 | G,,4 A,2 | x6 | x6 | x6 | x6 | x6 | x6 | x6 | x6 | x6 | %24
 D4 (G,,=A,,) | =B,,4 C,2 | !courtesy!_A,,3 G,, F,,2 | G,,4 G,,2 | G,,4 A,2 | x6 | x6 | x6 | x6 | %33
 x6 | x6 | x6 | x6 | x6 | D4 (G,,=A,,) | =B,,4 C,2 | !courtesy!_A,,3 G,, F,,2 | x6 | x6 |] %43

